!!!COM: Bach, Johann Sebastian
!!!OTL@@DE: 74. O Haupt voll Blut und Wunden
!!!OTL@EN: O Head, bloody and wounded
!!!SCA: BWV 244.54
**kern	**kern	**kern	**kern
*staff2	*staff2	*staff1	*staff1
*Iorgan	*Iorgan	*Iorgan	*Iorgan
*>[A,A,B]	*>[A,A,B]	*>[A,A,B]	*>[A,A,B]
*>norep[A,B]	*>norep[A,B]	*>norep[A,B]	*>norep[A,B]
*>A	*>A	*>A	*>A
!bass	!tenor	!alto	!sprno
*clefF4	*clefF4	*clefG2	*clefG2
*k[b-]	*k[b-]	*k[b-]	*k[b-]
*met(C)	*met(C)	*met(C)	*met(C)
*M4/4	*M4/4	*M4/4	*M4/4
*MM60	*MM60	*MM60	*MM60
8d\L	4d/	4f\	4a/
8c\J	.	.	.
=1	=1	=1	=1
4B-\	8d/L	8f\L	4dd/
.	8e/J	8g\J	.
4A\	4f/	4a\	4cc/
4G\	4g/	8d\L	4b-/
.	.	8e\J	.
4F\	4c/	4f\	4a/
=2	=2	=2	=2
4BB-\	4d/	4f\	2g/
4C\	4c/	4e\	.
4F;\	4c;/	4f;\	4a;/
4C#\	4e/	4a\	4ee/
=3	=3	=3	=3
8D\L	4e/	4a\	4ff/
8E\	.	.	.
8F\	4d/	4a\	4ff/
8G\J	.	.	.
4A\	4d/	4a\	8ee/L
.	.	.	8dd/J
4AA\	4c#/	8a\L	4ee/
.	.	8g\J	.
=4	=4	=4	=4
2.D;\	2.A;/	2.f;\	2.dd;/
=:|!	=:|!	=:|!	=:|!
*>B	*>B	*>B	*>B
4D\	8d/L	4a\	4ff/
.	8c/J	.	.
=5	=5	=5	=5
4G\	4B-/	4g\	8ee/L
.	.	.	8dd/J
4A\	4c/	8g\L	4cc/
.	.	8f\J	.
8B-\L	4c/	4f\	4dd/
8A\J	.	.	.
4G\	8B-/L	4b-\	4ee/
.	8c/J	.	.
=6	=6	=6	=6
2F\	4d/	4b-\	2ff/
.	8c/L	8a\L	.
.	8B-/J	8g\J	.
4F;\	4c;/	4a;\	4ff;/
4F\	8f/L	4a\	4cc/
.	8e-/J	.	.
=7	=7	=7	=7
!!linebreak: 2
4B-\	4d/	8a\L	4dd/
.	.	8g\J	.
4F#\	4d/	4a\	4cc/
4G\	4d/	8g\L	8b-/L
.	.	8f#\J	8a/J
4GG\	4d/	4g\	4b-/
=8	=8	=8	=8
2.D;\	2.d;/	2.f#;\	2.a;/
4BBn\	4d/	4g\	4ffn/
=9	=9	=9	=9
4C\	8c/L	4g\	8ee/L
.	8d/J	.	8ff/J
8c\L	4e/	4cc\	4gg/
8Bn\J	.	.	.
4A\	4f/	4cc\	4ff/
4G\	4g/	4cc\	4ee/
=10	=10	=10	=10
4F\	4a/	4cc\	2dd/
4G\	4g/	4bn\	.
4C;\	4g;/	4cc;\	4ee;/
4F\	4c/	8f\L	4a/
.	.	8e\J	.
=11	=11	=11	=11
4G\	4B-/	8d\L	4b-/
.	.	8e\J	.
8A\L	4c/	4f\	4a/
8B-\J	.	.	.
4c\	8c/L	4f\	4g/
.	16B-/L	.	.
.	16A/JJ	.	.
4C\	4G/	4e\	4cc/
=12	=12	=12	=12
2.F;\	2.c;/	2.f;\	2.a;/
==	==	==	==
*-	*-	*-	*-
!!!ENC: Craig Stuart Sapp
!!!END: 2004/12/06/
!!chor2scor: -l 2 -s 0.6 -o %b.pmx
